contributed-vectors/face_app.svg

<svg xmlns="http://www.w3.org/2000/svg" xml:space="preserve" style="fill-rule:evenodd;clip-rule:evenodd;stroke-linejoin:round;stroke-miterlimit:2" viewBox="0 0 192 192"><path d="M164.5 21.5c0-5.519-4.481-10-10-10h-133c-5.519 0-10 4.481-10 10v133c0 5.519 4.481 10 10 10h133c5.519 0 10-4.481 10-10v-133Z" style="fill:#fff" transform="translate(8 8)"/><path d="m32.306 172.5.904-13.075c1.706-13.074 31.125-16.911 38.943-20.48 7.817-3.568 6.864-16.235 6.864-16.235-7.459-8.15-8.247-17.136-8.247-17.136-12.338-19.487-2.229-20.528-2.229-20.528C59.039 45.813 96 47.511 96 47.511V172.5H32.306Z" style="fill:#9abeff"/><path d="M96 172.5V47.511s36.961-1.698 27.459 37.535c0 0 10.109 1.041-2.229 20.528 0 0-.788 8.986-8.247 17.136 0 0-.953 12.667 6.864 16.235 7.818 3.569 37.237 7.406 38.943 20.48l.904 13.075H96Z" style="fill:#ff837d"/></svg>

<?xml version="1.0" encoding="UTF-8" standalone="no"?>
<!DOCTYPE svg PUBLIC "-//W3C//DTD SVG 1.1//EN" "http://www.w3.org/Graphics/SVG/1.1/DTD/svg11.dtd">
<svg width="100%" height="100%" viewBox="0 0 192 192" version="1.1" xmlns="http://www.w3.org/2000/svg" xmlns:xlink="http://www.w3.org/1999/xlink" xml:space="preserve" xmlns:serif="http://www.serif.com/" style="fill-rule:evenodd;clip-rule:evenodd;stroke-linejoin:round;stroke-miterlimit:2;">
    <g id="Layer1">
        <g transform="matrix(1,0,0,1,8,8)">
            <path d="M164.5,21.5C164.5,15.981 160.019,11.5 154.5,11.5L21.5,11.5C15.981,11.5 11.5,15.981 11.5,21.5L11.5,154.5C11.5,160.019 15.981,164.5 21.5,164.5L154.5,164.5C160.019,164.5 164.5,160.019 164.5,154.5L164.5,21.5Z" style="fill:white;"/>
        </g>
        <g>
            <path d="M32.306,172.5L33.21,159.425C34.916,146.351 64.335,142.514 72.153,138.945C79.97,135.377 79.017,122.71 79.017,122.71C71.558,114.56 70.77,105.574 70.77,105.574C58.432,86.087 68.541,85.046 68.541,85.046C59.039,45.813 96,47.511 96,47.511L96,172.5L32.306,172.5Z" style="fill:rgb(154,190,255);"/>
            <path d="M96,172.5L96,47.511C96,47.511 132.961,45.813 123.459,85.046C123.459,85.046 133.568,86.087 121.23,105.574C121.23,105.574 120.442,114.56 112.983,122.71C112.983,122.71 112.03,135.377 119.847,138.945C127.665,142.514 157.084,146.351 158.79,159.425L159.694,172.5L96,172.5Z" style="fill:rgb(255,131,125);"/>
        </g>
    </g>
</svg>
